symbols/web/loyalty/materialsymbolssharp/loyalty_wght200fill1_24px.svg

<svg xmlns="http://www.w3.org/2000/svg" height="24" width="24"><path d="m13 16.925 3.05-3.15q.2-.225.313-.513.112-.287.112-.637 0-.625-.45-1.1-.45-.475-1.1-.475-.475 0-.95.25t-.975.9q-.525-.65-.987-.9-.463-.25-.938-.25-.65 0-1.1.475-.45.475-.45 1.1 0 .35.112.637.113.288.313.513Zm-.15 4.5L3 11.575V3h8.575l9.85 9.85ZM6.5 7.5q.425 0 .713-.287.287-.288.287-.713t-.287-.713Q6.925 5.5 6.5 5.5t-.713.287Q5.5 6.075 5.5 6.5t.287.713q.288.287.713.287Z"/></svg>

<svg xmlns="http://www.w3.org/2000/svg" height="24" width="24"><path d="M13 16.925 16.05 13.775Q16.25 13.55 16.363 13.262Q16.475 12.975 16.475 12.625Q16.475 12 16.025 11.525Q15.575 11.05 14.925 11.05Q14.45 11.05 13.975 11.3Q13.5 11.55 13 12.2Q12.475 11.55 12.013 11.3Q11.55 11.05 11.075 11.05Q10.425 11.05 9.975 11.525Q9.525 12 9.525 12.625Q9.525 12.975 9.637 13.262Q9.75 13.55 9.95 13.775ZM12.85 21.425 3 11.575V3H11.575L21.425 12.85ZM6.5 7.5Q6.925 7.5 7.213 7.213Q7.5 6.925 7.5 6.5Q7.5 6.075 7.213 5.787Q6.925 5.5 6.5 5.5Q6.075 5.5 5.787 5.787Q5.5 6.075 5.5 6.5Q5.5 6.925 5.787 7.213Q6.075 7.5 6.5 7.5Z"/></svg>
